static/img/kroki/5425dc4f496d035dc1479175875a6e5c.svg

<?xml version="1.0" encoding="us-ascii" standalone="no"?><svg xmlns="http://www.w3.org/2000/svg" xmlns:xlink="http://www.w3.org/1999/xlink" contentStyleType="text/css" height="732px" preserveAspectRatio="none" style="width:675px;height:732px;" version="1.1" viewBox="0 0 675 732" width="675px" zoomAndPan="magnify"><defs/><g><!--class aws_route53_resource_record_set--><g id="elem_aws_route53_resource_record_set"><rect codeLine="23" fill="#3D176E" height="39.7891" id="aws_route53_resource_record_set" rx="2.5" ry="2.5" style="stroke:#000D19;stroke-width:0.5;" width="326" x="7" y="686.44"/><ellipse cx="22" cy="706.3345" fill="#ADD1B2" rx="11" ry="11" style="stroke:#181818;stroke-width:1.0;"/><path d="M24.9688,711.9752 Q24.3906,712.272 23.75,712.4127 Q23.1094,712.5689 22.4063,712.5689 Q19.9063,712.5689 18.5781,710.9283 Q17.2656,709.272 17.2656,706.147 Q17.2656,703.022 18.5781,701.3658 Q19.9063,699.7095 22.4063,699.7095 Q23.1094,699.7095 23.75,699.8658 Q24.4063,700.022 24.9688,700.3189 L24.9688,703.0377 Q24.3438,702.4595 23.75,702.1939 Q23.1563,701.9127 22.5313,701.9127 Q21.1875,701.9127 20.5,702.9908 Q19.8125,704.0533 19.8125,706.147 Q19.8125,708.2408 20.5,709.3189 Q21.1875,710.3814 22.5313,710.3814 Q23.1563,710.3814 23.75,710.1158 Q24.3438,709.8345 24.9688,709.2564 L24.9688,711.9752 Z " fill="#000000"/><text fill="#D9B8FF" font-family="Helvetica" font-size="17" lengthAdjust="spacing" textLength="284" x="41" y="712.2198">aws_route53_resource_record_set</text></g><!--class azure_network_dns_record_set--><g id="elem_azure_network_dns_record_set"><rect codeLine="26" fill="#3D176E" height="39.7891" id="azure_network_dns_record_set" rx="2.5" ry="2.5" style="stroke:#000D19;stroke-width:0.5;" width="300" x="368" y="686.44"/><ellipse cx="383" cy="706.3345" fill="#ADD1B2" rx="11" ry="11" style="stroke:#181818;stroke-width:1.0;"/><path d="M385.9688,711.9752 Q385.3906,712.272 384.75,712.4127 Q384.1094,712.5689 383.4063,712.5689 Q380.9063,712.5689 379.5781,710.9283 Q378.2656,709.272 378.2656,706.147 Q378.2656,703.022 379.5781,701.3658 Q380.9063,699.7095 383.4063,699.7095 Q384.1094,699.7095 384.75,699.8658 Q385.4063,700.022 385.9688,700.3189 L385.9688,703.0377 Q385.3438,702.4595 384.75,702.1939 Q384.1563,701.9127 383.5313,701.9127 Q382.1875,701.9127 381.5,702.9908 Q380.8125,704.0533 380.8125,706.147 Q380.8125,708.2408 381.5,709.3189 Q382.1875,710.3814 383.5313,710.3814 Q384.1563,710.3814 384.75,710.1158 Q385.3438,709.8345 385.9688,709.2564 L385.9688,711.9752 Z " fill="#000000"/><text fill="#D9B8FF" font-family="Helvetica" font-size="17" lengthAdjust="spacing" textLength="258" x="402" y="712.2198">azure_network_dns_record_set</text></g><!--class dns_record_set--><g id="elem_dns_record_set"><rect codeLine="29" fill="#3D176E" height="126.6797" id="dns_record_set" rx="2.5" ry="2.5" style="stroke:#000D19;stroke-width:0.5;" width="191" x="248.5" y="438.76"/><ellipse cx="274.75" cy="458.6545" fill="#ADD1B2" rx="11" ry="11" style="stroke:#181818;stroke-width:1.0;"/><path d="M277.7188,464.2952 Q277.1406,464.592 276.5,464.7327 Q275.8594,464.8889 275.1563,464.8889 Q272.6563,464.8889 271.3281,463.2483 Q270.0156,461.592 270.0156,458.467 Q270.0156,455.342 271.3281,453.6858 Q272.6563,452.0295 275.1563,452.0295 Q275.8594,452.0295 276.5,452.1858 Q277.1563,452.342 277.7188,452.6389 L277.7188,455.3577 Q277.0938,454.7795 276.5,454.5139 Q275.9063,454.2327 275.2813,454.2327 Q273.9375,454.2327 273.25,455.3108 Q272.5625,456.3733 272.5625,458.467 Q272.5625,460.5608 273.25,461.6389 Q273.9375,462.7014 275.2813,462.7014 Q275.9063,462.7014 276.5,462.4358 Q277.0938,462.1545 277.7188,461.5764 L277.7188,464.2952 Z " fill="#000000"/><text fill="#D9B8FF" font-family="Helvetica" font-size="17" lengthAdjust="spacing" textLength="124" x="296.25" y="464.5398">dns_record_set</text><line style="stroke:#000D19;stroke-width:0.5;" x1="249.5" x2="438.5" y1="478.5491" y2="478.5491"/><text fill="#D9B8FF" font-family="sans-serif" font-size="14" font-weight="bold" lengthAdjust="spacing" textLength="76" x="259.5" y="500.5442">record_ttl</text><text fill="#D9B8FF" font-family="sans-serif" font-size="14" lengthAdjust="spacing" textLength="44" x="335.5" y="500.5442">: int64</text><text fill="#D9B8FF" font-family="sans-serif" font-size="14" font-weight="bold" lengthAdjust="spacing" textLength="95" x="259.5" y="526.8411">record_type</text><text fill="#D9B8FF" font-family="sans-serif" font-size="14" lengthAdjust="spacing" textLength="48" x="354.5" y="526.8411">: string</text><text fill="#D9B8FF" font-family="sans-serif" font-size="14" font-weight="bold" lengthAdjust="spacing" textLength="111" x="259.5" y="553.1379">record_values</text><text fill="#D9B8FF" font-family="sans-serif" font-size="14" lengthAdjust="spacing" textLength="58" x="370.5" y="553.1379">: string[]</text></g><!--class resource--><g id="elem_resource"><rect codeLine="34" fill="#3D176E" height="310.7578" id="resource" rx="2.5" ry="2.5" style="stroke:#000D19;stroke-width:0.5;" width="227" x="230.5" y="7"/><ellipse cx="299.25" cy="26.8945" fill="#ADD1B2" rx="11" ry="11" style="stroke:#181818;stroke-width:1.0;"/><path d="M302.2188,32.5352 Q301.6406,32.832 301,32.9727 Q300.3594,33.1289 299.6563,33.1289 Q297.1563,33.1289 295.8281,31.4883 Q294.5156,29.832 294.5156,26.707 Q294.5156,23.582 295.8281,21.9258 Q297.1563,20.2695 299.6563,20.2695 Q300.3594,20.2695 301,20.4258 Q301.6563,20.582 302.2188,20.8789 L302.2188,23.5977 Q301.5938,23.0195 301,22.7539 Q300.4063,22.4727 299.7813,22.4727 Q298.4375,22.4727 297.75,23.5508 Q297.0625,24.6133 297.0625,26.707 Q297.0625,28.8008 297.75,29.8789 Q298.4375,30.9414 299.7813,30.9414 Q300.4063,30.9414 301,30.6758 Q301.5938,30.3945 302.2188,29.8164 L302.2188,32.5352 Z " fill="#000000"/><text fill="#D9B8FF" font-family="Helvetica" font-size="17" lengthAdjust="spacing" textLength="71" x="324.75" y="32.7798">resource</text><line style="stroke:#000D19;stroke-width:0.5;" x1="231.5" x2="456.5" y1="46.7891" y2="46.7891"/><text fill="#D9B8FF" font-family="sans-serif" font-size="14" font-weight="bold" lengthAdjust="spacing" textLength="29" x="241.5" y="68.7842">age</text><text fill="#D9B8FF" font-family="sans-serif" font-size="14" lengthAdjust="spacing" textLength="66" x="270.5" y="68.7842">: duration</text><text fill="#D9B8FF" font-family="sans-serif" font-size="14" font-weight="bold" lengthAdjust="spacing" textLength="43" x="241.5" y="95.0811">atime</text><text fill="#D9B8FF" font-family="sans-serif" font-size="14" lengthAdjust="spacing" textLength="70" x="284.5" y="95.0811">: datetime</text><text fill="#D9B8FF" font-family="sans-serif" font-size="14" font-weight="bold" lengthAdjust="spacing" textLength="43" x="241.5" y="121.3779">ctime</text><text fill="#D9B8FF" font-family="sans-serif" font-size="14" lengthAdjust="spacing" textLength="70" x="284.5" y="121.3779">: datetime</text><text fill="#D9B8FF" font-family="sans-serif" font-size="14" font-weight="bold" lengthAdjust="spacing" textLength="14" x="241.5" y="147.6748">id</text><text fill="#D9B8FF" font-family="sans-serif" font-size="14" lengthAdjust="spacing" textLength="48" x="255.5" y="147.6748">: string</text><text fill="#D9B8FF" font-family="sans-serif" font-size="14" font-weight="bold" lengthAdjust="spacing" textLength="33" x="241.5" y="173.9717">kind</text><text fill="#D9B8FF" font-family="sans-serif" font-size="14" lengthAdjust="spacing" textLength="48" x="274.5" y="173.9717">: string</text><text fill="#D9B8FF" font-family="sans-serif" font-size="14" font-weight="bold" lengthAdjust="spacing" textLength="90" x="241.5" y="200.2686">last_access</text><text fill="#D9B8FF" font-family="sans-serif" font-size="14" lengthAdjust="spacing" textLength="66" x="331.5" y="200.2686">: duration</text><text fill="#D9B8FF" font-family="sans-serif" font-size="14" font-weight="bold" lengthAdjust="spacing" textLength="90" x="241.5" y="226.5654">last_update</text><text fill="#D9B8FF" font-family="sans-serif" font-size="14" lengthAdjust="spacing" textLength="66" x="331.5" y="226.5654">: duration</text><text fill="#D9B8FF" font-family="sans-serif" font-size="14" font-weight="bold" lengthAdjust="spacing" textLength="48" x="241.5" y="252.8623">mtime</text><text fill="#D9B8FF" font-family="sans-serif" font-size="14" lengthAdjust="spacing" textLength="70" x="289.5" y="252.8623">: datetime</text><text fill="#D9B8FF" font-family="sans-serif" font-size="14" font-weight="bold" lengthAdjust="spacing" textLength="43" x="241.5" y="279.1592">name</text><text fill="#D9B8FF" font-family="sans-serif" font-size="14" lengthAdjust="spacing" textLength="48" x="284.5" y="279.1592">: string</text><text fill="#D9B8FF" font-family="sans-serif" font-size="14" font-weight="bold" lengthAdjust="spacing" textLength="34" x="241.5" y="305.4561">tags</text><text fill="#D9B8FF" font-family="sans-serif" font-size="14" lengthAdjust="spacing" textLength="171" x="275.5" y="305.4561">: dictionary[string, string]</text></g><!--reverse link dns_record_set to aws_route53_resource_record_set--><g id="link_dns_record_set_aws_route53_resource_record_set"><path codeLine="46" d="M278.4006,579.345 C242.6706,620.875 209.91,658.95 186.37,686.31 " fill="none" id="dns_record_set-backto-aws_route53_resource_record_set" style="stroke:#FFAF37;stroke-width:2.0;"/><polygon fill="none" points="290.14,565.7,273.8523,575.4319,282.949,583.2582,290.14,565.7" style="stroke:#FFAF37;stroke-width:2.0;"/></g><!--reverse link dns_record_set to azure_network_dns_record_set--><g id="link_dns_record_set_azure_network_dns_record_set"><path codeLine="47" d="M409.5994,579.345 C445.3294,620.875 478.09,658.95 501.63,686.31 " fill="none" id="dns_record_set-backto-azure_network_dns_record_set" style="stroke:#FFAF37;stroke-width:2.0;"/><polygon fill="none" points="397.86,565.7,405.051,583.2582,414.1477,575.4319,397.86,565.7" style="stroke:#FFAF37;stroke-width:2.0;"/></g><!--reverse link resource to dns_record_set--><g id="link_resource_dns_record_set"><path codeLine="48" d="M344,335.91 C344,378.46 344,404.24 344,438.32 " fill="none" id="resource-backto-dns_record_set" style="stroke:#FFAF37;stroke-width:2.0;"/><polygon fill="none" points="344,317.91,338,335.91,350,335.91,344,317.91" style="stroke:#FFAF37;stroke-width:2.0;"/></g><!--SRC=[XPDFR-8m4CNl-HIMUaD5Wb9AgNffaQhsWbRRlLMhQB0dmIAnqNXIH7VtkwzDW0Q7FxValP_dpOoJkLOei5poMfHOpf1SuXRQB86W54z4TZMnXILnbMMG3KQn-M8DNmIcKA9unU8JMKk8YLzpBHS6dHCt3UiPv28dMnbLbsS2uxo5XXlKf03ddfX9poh6HZDgFBlFifYCYruDL7zqXotCaaBQ8hrUJ_N7CN8nwkpSU-9TVw7eDvSsjOojDbiH6-fibu5eDDaQTEUVxF47AALDBeODxMVT4nca0_rz3igk0fr1uPenZf7Gydg9azPKEBvNsUWe_7OAJcHOdO2LIxtBE1oaXCvM9D4_IB-Ir26BFqdoRuT-LOIfGLvPMgJAk1DSo-bqjg_CHQVp8BJXkzk6wjiCilCVdyc_zKyeAdJVpiVlVSIkqqrno3V7LKN0sfgWi2vh3HZ3izVa4KshWro_laF1Pt4AKlfVAahOEDKor8gSyaYEWV9mGeQyhgXbE0Qq_gYzwoqJHets-FYts-rUkgyJXyxSNBBVPSr6xdy0]--></g></svg>

<svg xmlns="http://www.w3.org/2000/svg" width="675" height="732" viewBox="0 0 675 732"><rect width="326" height="39.789" x="7" y="686.44" fill="#3D176E" rx="2.5" ry="2.5" style="stroke:#000d19;stroke-width:.5"/><circle cx="22" cy="706.335" r="11" fill="#ADD1B2" style="stroke:#181818;stroke-width:1"/><path d="M24.969 711.975q-.578.297-1.219.438-.64.156-1.344.156-2.5 0-3.828-1.64-1.312-1.657-1.312-4.782t1.312-4.781q1.328-1.656 3.828-1.656.703 0 1.344.156.656.156 1.219.453v2.719q-.625-.578-1.219-.844-.594-.281-1.219-.281-1.343 0-2.031 1.078-.687 1.062-.687 3.156t.687 3.172q.688 1.062 2.031 1.062.625 0 1.219-.265.594-.281 1.219-.86z"/><text x="41" y="712.22" fill="#D9B8FF" font-family="Helvetica" font-size="17" textLength="284">aws_route53_resource_record_set</text><rect width="300" height="39.789" x="368" y="686.44" fill="#3D176E" rx="2.5" ry="2.5" style="stroke:#000d19;stroke-width:.5"/><circle cx="383" cy="706.335" r="11" fill="#ADD1B2" style="stroke:#181818;stroke-width:1"/><path d="M385.969 711.975q-.578.297-1.219.438-.64.156-1.344.156-2.5 0-3.828-1.64-1.312-1.657-1.312-4.782t1.312-4.781q1.328-1.656 3.828-1.656.703 0 1.344.156.656.156 1.219.453v2.719q-.625-.578-1.219-.844-.594-.281-1.219-.281-1.344 0-2.031 1.078-.687 1.062-.687 3.156t.687 3.172q.688 1.062 2.031 1.062.625 0 1.219-.265.594-.281 1.219-.86z"/><text x="402" y="712.22" fill="#D9B8FF" font-family="Helvetica" font-size="17" textLength="258">azure_network_dns_record_set</text><rect width="191" height="126.68" x="248.5" y="438.76" fill="#3D176E" rx="2.5" ry="2.5" style="stroke:#000d19;stroke-width:.5"/><circle cx="274.75" cy="458.654" r="11" fill="#ADD1B2" style="stroke:#181818;stroke-width:1"/><path d="M277.719 464.295q-.578.297-1.219.438-.64.156-1.344.156-2.5 0-3.828-1.64-1.312-1.657-1.312-4.782t1.312-4.781q1.328-1.656 3.828-1.656.703 0 1.344.156.656.156 1.219.453v2.719q-.625-.579-1.219-.844-.594-.281-1.219-.281-1.344 0-2.031 1.078-.687 1.062-.687 3.156t.687 3.172q.688 1.062 2.031 1.062.625 0 1.219-.265.594-.281 1.219-.86z"/><text x="296.25" y="464.54" fill="#D9B8FF" font-family="Helvetica" font-size="17" textLength="124">dns_record_set</text><path d="M249.5 478.549h189" style="stroke:#000d19;stroke-width:.5"/><text x="259.5" y="500.544" fill="#D9B8FF" font-family="sans-serif" font-size="14" font-weight="bold" textLength="76">record_ttl</text><text x="335.5" y="500.544" fill="#D9B8FF" font-family="sans-serif" font-size="14" textLength="44">: int64</text><text x="259.5" y="526.841" fill="#D9B8FF" font-family="sans-serif" font-size="14" font-weight="bold" textLength="95">record_type</text><text x="354.5" y="526.841" fill="#D9B8FF" font-family="sans-serif" font-size="14" textLength="48">: string</text><text x="259.5" y="553.138" fill="#D9B8FF" font-family="sans-serif" font-size="14" font-weight="bold" textLength="111">record_values</text><text x="370.5" y="553.138" fill="#D9B8FF" font-family="sans-serif" font-size="14" textLength="58">: string[]</text><rect width="227" height="310.758" x="230.5" y="7" fill="#3D176E" rx="2.5" ry="2.5" style="stroke:#000d19;stroke-width:.5"/><circle cx="299.25" cy="26.895" r="11" fill="#ADD1B2" style="stroke:#181818;stroke-width:1"/><path d="M302.219 32.535q-.578.297-1.219.438-.64.156-1.344.156-2.5 0-3.828-1.64-1.312-1.657-1.312-4.782t1.312-4.781q1.328-1.656 3.828-1.656.703 0 1.344.156.656.156 1.219.453v2.719q-.625-.578-1.219-.844-.594-.281-1.219-.281-1.344 0-2.031 1.078-.687 1.062-.687 3.156t.687 3.172q.688 1.062 2.031 1.062.625 0 1.219-.265.594-.281 1.219-.86z"/><text x="324.75" y="32.78" fill="#D9B8FF" font-family="Helvetica" font-size="17" textLength="71">resource</text><path d="M231.5 46.789h225" style="stroke:#000d19;stroke-width:.5"/><text x="241.5" y="68.784" fill="#D9B8FF" font-family="sans-serif" font-size="14" font-weight="bold" textLength="29">age</text><text x="270.5" y="68.784" fill="#D9B8FF" font-family="sans-serif" font-size="14" textLength="66">: duration</text><text x="241.5" y="95.081" fill="#D9B8FF" font-family="sans-serif" font-size="14" font-weight="bold" textLength="43">atime</text><text x="284.5" y="95.081" fill="#D9B8FF" font-family="sans-serif" font-size="14" textLength="70">: datetime</text><text x="241.5" y="121.378" fill="#D9B8FF" font-family="sans-serif" font-size="14" font-weight="bold" textLength="43">ctime</text><text x="284.5" y="121.378" fill="#D9B8FF" font-family="sans-serif" font-size="14" textLength="70">: datetime</text><text x="241.5" y="147.675" fill="#D9B8FF" font-family="sans-serif" font-size="14" font-weight="bold" textLength="14">id</text><text x="255.5" y="147.675" fill="#D9B8FF" font-family="sans-serif" font-size="14" textLength="48">: string</text><text x="241.5" y="173.972" fill="#D9B8FF" font-family="sans-serif" font-size="14" font-weight="bold" textLength="33">kind</text><text x="274.5" y="173.972" fill="#D9B8FF" font-family="sans-serif" font-size="14" textLength="48">: string</text><text x="241.5" y="200.269" fill="#D9B8FF" font-family="sans-serif" font-size="14" font-weight="bold" textLength="90">last_access</text><text x="331.5" y="200.269" fill="#D9B8FF" font-family="sans-serif" font-size="14" textLength="66">: duration</text><text x="241.5" y="226.565" fill="#D9B8FF" font-family="sans-serif" font-size="14" font-weight="bold" textLength="90">last_update</text><text x="331.5" y="226.565" fill="#D9B8FF" font-family="sans-serif" font-size="14" textLength="66">: duration</text><text x="241.5" y="252.862" fill="#D9B8FF" font-family="sans-serif" font-size="14" font-weight="bold" textLength="48">mtime</text><text x="289.5" y="252.862" fill="#D9B8FF" font-family="sans-serif" font-size="14" textLength="70">: datetime</text><text x="241.5" y="279.159" fill="#D9B8FF" font-family="sans-serif" font-size="14" font-weight="bold" textLength="43">name</text><text x="284.5" y="279.159" fill="#D9B8FF" font-family="sans-serif" font-size="14" textLength="48">: string</text><text x="241.5" y="305.456" fill="#D9B8FF" font-family="sans-serif" font-size="14" font-weight="bold" textLength="34">tags</text><text x="275.5" y="305.456" fill="#D9B8FF" font-family="sans-serif" font-size="14" textLength="171">: dictionary[string, string]</text><path fill="none" d="M278.4 579.345c-35.73 41.53-68.49 79.605-92.03 106.965M290.14 565.7l-16.288 9.732 9.097 7.826zm119.46 13.645c35.73 41.53 68.49 79.605 92.03 106.965M397.86 565.7l7.191 17.558 9.097-7.826zM344 335.91v102.41m0-120.41-6 18h12z" style="stroke:#ffaf37;stroke-width:2"/></svg>
